%
(CrossCutTblSawSled.v.33)
(Table Saw Cross Cut sled take 2)
(T1  D=6.35 CR=0 - ZMIN=-13.7 - flat end mill)
G90 G94
G17
G21
G28 G91 Z0
G90

(Base Contour)
M9
T1 M6
S12000 M3
G54
G0 X291.668 Y202.072
Z6
Z1
G1 Z-3.175 F254
Y-102.728 F762
G2 X288.493 Y-105.903 I-3.175
G1 X-524.307
G2 X-527.482 Y-102.728 J3.175
G1 Y506.872
G2 X-524.307 Y510.047 I3.175
G1 X288.493
G2 X291.668 Y506.872 J-3.175
G1 Y202.072
Z-6.35 F254
Y-102.728 F762
G2 X288.493 Y-105.903 I-3.175
G1 X-524.307
G2 X-527.482 Y-102.728 J3.175
G1 Y506.872
G2 X-524.307 Y510.047 I3.175
G1 X288.493
G2 X291.668 Y506.872 J-3.175
G1 Y202.072
Z-9.525 F254
Y-102.728 F762
G2 X288.493 Y-105.903 I-3.175
G1 X-524.307
G2 X-527.482 Y-102.728 J3.175
G1 Y506.872
G2 X-524.307 Y510.047 I3.175
G1 X288.493
G2 X291.668 Y506.872 J-3.175
G1 Y202.072
Z-12.7 F254
Y55.847 F762
Z-10.7
Y43.497
Z-12.7 F254
Y-102.728 F762
G2 X288.493 Y-105.903 I-3.175
G1 X91.468
Z-10.7
X79.118
Z-12.7 F254
X-314.932 F762
Z-10.7
X-327.282
Z-12.7 F254
X-524.307 F762
G2 X-527.482 Y-102.728 J3.175
G1 Y43.497
Z-10.7
Y55.847
Z-12.7 F254
Y348.297 F762
Z-10.7
Y360.647
Z-12.7 F254
Y506.872 F762
G2 X-524.307 Y510.047 I3.175
G1 X-327.282
Z-10.7
X-314.932
Z-12.7 F254
X79.118 F762
Z-10.7
X91.468
Z-12.7 F254
X288.493 F762
G2 X291.668 Y506.872 J-3.175
G1 Y360.647
Z-10.7
Y348.297
Z-12.7 F254
Y202.072 F762
Z-13.7 F254
Y55.847 F762
Z-10.7
Y43.497
Z-13.7 F254
Y-102.728 F762
G2 X288.493 Y-105.903 I-3.175
G1 X91.468
Z-10.7
X79.118
Z-13.7 F254
X-314.932 F762
Z-10.7
X-327.282
Z-13.7 F254
X-524.307 F762
G2 X-527.482 Y-102.728 J3.175
G1 Y43.497
Z-10.7
Y55.847
Z-13.7 F254
Y348.297 F762
Z-10.7
Y360.647
Z-13.7 F254
Y506.872 F762
G2 X-524.307 Y510.047 I3.175
G1 X-327.282
Z-10.7
X-314.932
Z-13.7 F254
X79.118 F762
Z-10.7
X91.468
Z-13.7 F254
X288.493 F762
G2 X291.668 Y506.872 J-3.175
G1 Y360.647
Z-10.7
Y348.297
Z-13.7 F254
Y202.072 F762
G0 Z6

(Fence Contour 1)
M8
X413.732 Y-282.66
G1 Z1 F254
Z-3.175
Y479.34 F762
G2 X442.307 Y507.915 I28.575
G1 X518.507
G2 X521.682 Y504.74 J-3.175
G1 Y-308.06
G2 X518.507 Y-311.235 I-3.175
G1 X442.307
G2 X413.732 Y-282.66 J28.575
G0 Z1
X407.382 Y-308.06
G1 Z-3.175 F254
G2 X404.207 Y-311.235 I-3.175 F762
G1 X328.007
G2 X299.432 Y-282.66 J28.575
G1 Y479.34
G2 X328.007 Y507.915 I28.575
G1 X404.207
G2 X407.382 Y504.74 J-3.175
G1 Y-308.06
Z-6.35 F254
G2 X404.207 Y-311.235 I-3.175 F762
G1 X328.007
G2 X299.432 Y-282.66 J28.575
G1 Y479.34
G2 X328.007 Y507.915 I28.575
G1 X404.207
G2 X407.382 Y504.74 J-3.175
G1 Y-308.06
G0 Z0
X429.099 Y-307.999
G1 Z-2.175 F254
Z-6.35
G2 X413.732 Y-282.66 I13.208 J25.339 F762
G1 Y479.34
G2 X442.307 Y507.915 I28.575
G1 X518.507
G2 X521.682 Y504.74 J-3.175
G1 Y-308.06
G2 X518.507 Y-311.235 I-3.175
G1 X442.307
G2 X429.099 Y-307.999 J28.575
G1 Z-9.525 F254
G2 X413.732 Y-282.66 I13.208 J25.339 F762
G1 Y479.34
G2 X442.307 Y507.915 I28.575
G1 X518.507
G2 X521.682 Y504.74 J-3.175
G1 Y-308.06
G2 X518.507 Y-311.235 I-3.175
G1 X442.307
G2 X429.099 Y-307.999 J28.575
G0 Z0
X407.382 Y-308.06
G1 Z-5.35 F254
Z-9.525
G2 X404.207 Y-311.235 I-3.175 F762
G1 X328.007
G2 X299.432 Y-282.66 J28.575
G1 Y479.34
G2 X328.007 Y507.915 I28.575
G1 X404.207
G2 X407.382 Y504.74 J-3.175
G1 Y-308.06
Z-12.7 F254
G2 X404.207 Y-311.235 I-3.175 F762
G1 X328.007
G2 X299.432 Y-282.66 J28.575
G1 Y-98.335
Z-10.7
Y-85.985
Z-12.7 F254
Y282.665 F762
Z-10.7
Y295.015
Z-12.7 F254
Y479.34 F762
G2 X328.007 Y507.915 I28.575
G1 X404.207
G2 X407.382 Y504.74 J-3.175
G1 Y307.715
Z-10.7
Y295.365
Z-12.7 F254
Y-98.685 F762
Z-10.7
Y-111.035
Z-12.7 F254
Y-308.06 F762
G0 Z0
X429.099 Y-307.999
G1 Z-8.525 F254
Z-12.7
G2 X413.732 Y-282.66 I13.208 J25.339 F762
G1 Y-98.335
Z-10.7
Y-85.985
Z-12.7 F254
Y282.665 F762
Z-10.7
Y295.015
Z-12.7 F254
Y479.34 F762
G2 X442.307 Y507.915 I28.575
G1 X518.507
G2 X521.682 Y504.74 J-3.175
G1 Y307.715
Z-10.7
Y295.365
Z-12.7 F254
Y-98.685 F762
Z-10.7
Y-111.035
Z-12.7 F254
Y-308.06 F762
G2 X518.507 Y-311.235 I-3.175
G1 X442.307
G2 X429.099 Y-307.999 J28.575
G1 Z-13.7 F254
G2 X413.732 Y-282.66 I13.208 J25.339 F762
G1 Y-98.335
Z-10.7
Y-85.985
Z-13.7 F254
Y282.665 F762
Z-10.7
Y295.015
Z-13.7 F254
Y479.34 F762
G2 X442.307 Y507.915 I28.575
G1 X518.507
G2 X521.682 Y504.74 J-3.175
G1 Y307.715
Z-10.7
Y295.365
Z-13.7 F254
Y-98.685 F762
Z-10.7
Y-111.035
Z-13.7 F254
Y-308.06 F762
G2 X518.507 Y-311.235 I-3.175
G1 X442.307
G2 X429.099 Y-307.999 J28.575
G0 Z0
X407.382 Y-308.06
G1 Z-11.7 F254
Z-13.7
G2 X404.207 Y-311.235 I-3.175 F762
G1 X328.007
G2 X299.432 Y-282.66 J28.575
G1 Y-98.335
Z-10.7
Y-85.985
Z-13.7 F254
Y282.665 F762
Z-10.7
Y295.015
Z-13.7 F254
Y479.34 F762
G2 X328.007 Y507.915 I28.575
G1 X404.207
G2 X407.382 Y504.74 J-3.175
G1 Y307.715
Z-10.7
Y295.365
Z-13.7 F254
Y-98.685 F762
Z-10.7
Y-111.035
Z-13.7 F254
Y-308.06 F762
G0 Z1
X409.649 Y-344.88
G1 Z-3.175 F254
G2 X412.824 Y-348.055 J-3.175 F762
G1 Y-449.655
G2 X409.649 Y-452.83 I-3.175
G1 X308.049
G2 X304.874 Y-449.655 J3.175
G1 Y-373.455
G2 X333.449 Y-344.88 I28.575
G1 X409.649
Z-6.35 F254
G2 X412.824 Y-348.055 J-3.175 F762
G1 Y-449.655
G2 X409.649 Y-452.83 I-3.175
G1 X308.049
G2 X304.874 Y-449.655 J3.175
G1 Y-373.455
G2 X333.449 Y-344.88 I28.575
G1 X409.649
Z-9.525 F254
G2 X412.824 Y-348.055 J-3.175 F762
G1 Y-449.655
G2 X409.649 Y-452.83 I-3.175
G1 X308.049
G2 X304.874 Y-449.655 J3.175
G1 Y-373.455
G2 X333.449 Y-344.88 I28.575
G1 X409.649
Z-12.7 F254
G2 X412.824 Y-348.055 J-3.175 F762
G1 Y-449.655
G2 X409.649 Y-452.83 I-3.175
G1 X308.049
G2 X304.874 Y-449.655 J3.175
G1 Y-373.455
G2 X333.449 Y-344.88 I28.575
G1 X409.649
Z-13.7 F254
G2 X412.824 Y-348.055 J-3.175 F762
G1 Y-449.655
G2 X409.649 Y-452.83 I-3.175
G1 X308.049
G2 X304.874 Y-449.655 J3.175
G1 Y-373.455
G2 X333.449 Y-344.88 I28.575
G1 X409.649
G0 Z1
X434.064 Y-346.766
G1 Z-3.175 F254
G2 X448.107 Y-343.077 I14.043 J-24.886 F762
G1 X524.307
G2 X527.482 Y-346.252 J-3.175
G1 Y-447.852
G2 X524.307 Y-451.027 I-3.175
G1 X422.707
G2 X419.532 Y-447.852 J3.175
G1 Y-371.652
G2 X434.064 Y-346.766 I28.575
G1 Z-6.35 F254
G2 X448.107 Y-343.077 I14.043 J-24.886 F762
G1 X524.307
G2 X527.482 Y-346.252 J-3.175
G1 Y-447.852
G2 X524.307 Y-451.027 I-3.175
G1 X422.707
G2 X419.532 Y-447.852 J3.175
G1 Y-371.652
G2 X434.064 Y-346.766 I28.575
G1 Z-9.525 F254
G2 X448.107 Y-343.077 I14.043 J-24.886 F762
G1 X524.307
G2 X527.482 Y-346.252 J-3.175
G1 Y-447.852
G2 X524.307 Y-451.027 I-3.175
G1 X422.707
G2 X419.532 Y-447.852 J3.175
G1 Y-371.652
G2 X434.064 Y-346.766 I28.575
G1 Z-12.7 F254
G2 X448.107 Y-343.077 I14.043 J-24.886 F762
G1 X524.307
G2 X527.482 Y-346.252 J-3.175
G1 Y-447.852
G2 X524.307 Y-451.027 I-3.175
G1 X422.707
G2 X419.532 Y-447.852 J3.175
G1 Y-371.652
G2 X434.064 Y-346.766 I28.575
G1 Z-13.7 F254
G2 X448.107 Y-343.077 I14.043 J-24.886 F762
G1 X524.307
G2 X527.482 Y-346.252 J-3.175
G1 Y-447.852
G2 X524.307 Y-451.027 I-3.175
G1 X422.707
G2 X419.532 Y-447.852 J3.175
G1 Y-371.652
G2 X434.064 Y-346.766 I28.575
G0 Z1

(Stiffiner Contour)
X84.938 Y-243.277
G1 Z1 F254
Z-3.175
G2 X90.233 Y-259.847 I-23.28 J-16.57 F762
G1 Y-336.047
G2 X87.058 Y-339.222 I-3.175
G1 X-522.542
G2 X-525.717 Y-336.047 J3.175
G1 Y-259.847
G2 X-497.142 Y-231.272 I28.575
G1 X61.658
G2 X84.938 Y-243.277 J-28.575
G1 Z-6.35 F254
G2 X90.233 Y-259.847 I-23.28 J-16.57 F762
G1 Y-336.047
G2 X87.058 Y-339.222 I-3.175
G1 X-522.542
G2 X-525.717 Y-336.047 J3.175
G1 Y-259.847
G2 X-497.142 Y-231.272 I28.575
G1 X61.658
G2 X84.938 Y-243.277 J-28.575
G1 Z-9.525 F254
G2 X90.233 Y-259.847 I-23.28 J-16.57 F762
G1 Y-336.047
G2 X87.058 Y-339.222 I-3.175
G1 X-522.542
G2 X-525.717 Y-336.047 J3.175
G1 Y-259.847
G2 X-497.142 Y-231.272 I28.575
G1 X61.658
G2 X84.938 Y-243.277 J-28.575
G1 Z-12.7 F254
G2 X90.233 Y-259.847 I-23.28 J-16.57 F762
G1 Y-291.772
Z-10.7
Y-304.122
Z-12.7 F254
Y-336.047 F762
G2 X87.058 Y-339.222 I-3.175
G1 X62.753
Z-10.7
X50.403
Z-12.7 F254
X1.793 F762
Z-10.7
X-10.557
Z-12.7 F254
X-59.167 F762
Z-10.7
X-71.517
Z-12.7 F254
X-120.127 F762
Z-10.7
X-132.477
Z-12.7 F254
X-181.087 F762
Z-10.7
X-193.437
Z-12.7 F254
X-242.047 F762
Z-10.7
X-254.397
Z-12.7 F254
X-303.007 F762
Z-10.7
X-315.357
Z-12.7 F254
X-363.967 F762
Z-10.7
X-376.317
Z-12.7 F254
X-424.927 F762
Z-10.7
X-437.277
Z-12.7 F254
X-485.887 F762
Z-10.7
X-498.237
Z-12.7 F254
X-522.542 F762
G2 X-525.717 Y-336.047 J3.175
G1 Y-304.122
Z-10.7
Y-291.772
Z-12.7 F254
Y-259.847 F762
G2 X-497.142 Y-231.272 I28.575
G1 X-472.273
Z-10.7
X-459.923
Z-12.7 F254
X-410.184 F762
Z-10.7
X-397.834
Z-12.7 F254
X-348.095 F762
Z-10.7
X-335.745
Z-12.7 F254
X-286.006 F762
Z-10.7
X-273.656
Z-12.7 F254
X-223.917 F762
Z-10.7
X-211.567
Z-12.7 F254
X-161.828 F762
Z-10.7
X-149.478
Z-12.7 F254
X-99.74 F762
Z-10.7
X-87.39
Z-12.7 F254
X-37.651 F762
Z-10.7
X-25.301
Z-12.7 F254
X24.438 F762
Z-10.7
X36.788
Z-12.7 F254
X61.658 F762
G2 X84.938 Y-243.277 J-28.575
G1 Z-13.7 F254
G2 X90.233 Y-259.847 I-23.28 J-16.57 F762
G1 Y-291.772
Z-10.7
Y-304.122
Z-13.7 F254
Y-336.047 F762
G2 X87.058 Y-339.222 I-3.175
G1 X62.753
Z-10.7
X50.403
Z-13.7 F254
X1.793 F762
Z-10.7
X-10.557
Z-13.7 F254
X-59.167 F762
Z-10.7
X-71.517
Z-13.7 F254
X-120.127 F762
Z-10.7
X-132.477
Z-13.7 F254
X-181.087 F762
Z-10.7
X-193.437
Z-13.7 F254
X-242.047 F762
Z-10.7
X-254.397
Z-13.7 F254
X-303.007 F762
Z-10.7
X-315.357
Z-13.7 F254
X-363.967 F762
Z-10.7
X-376.317
Z-13.7 F254
X-424.927 F762
Z-10.7
X-437.277
Z-13.7 F254
X-485.887 F762
Z-10.7
X-498.237
Z-13.7 F254
X-522.542 F762
G2 X-525.717 Y-336.047 J3.175
G1 Y-304.122
Z-10.7
Y-291.772
Z-13.7 F254
Y-259.847 F762
G2 X-497.142 Y-231.272 I28.575
G1 X-472.273
Z-10.7
X-459.923
Z-13.7 F254
X-410.184 F762
Z-10.7
X-397.834
Z-13.7 F254
X-348.095 F762
Z-10.7
X-335.745
Z-13.7 F254
X-286.006 F762
Z-10.7
X-273.656
Z-13.7 F254
X-223.917 F762
Z-10.7
X-211.567
Z-13.7 F254
X-161.828 F762
Z-10.7
X-149.478
Z-13.7 F254
X-99.74 F762
Z-10.7
X-87.39
Z-13.7 F254
X-37.651 F762
Z-10.7
X-25.301
Z-13.7 F254
X24.438 F762
Z-10.7
X36.788
Z-13.7 F254
X61.658 F762
G2 X84.938 Y-243.277 J-28.575
G0 Z1
X88.169 Y-223.903
G1 Z-3.175 F254
G2 X86.507 Y-224.373 I-1.662 J2.705 F762
G1 X-523.093
G2 X-526.268 Y-221.198 J3.175
G1 Y-144.998
G2 X-497.693 Y-116.423 I28.575
G1 X61.107
G2 X89.682 Y-144.998 J-28.575
G1 Y-221.198
G2 X88.169 Y-223.903 I-3.175
G1 Z-6.35 F254
G2 X86.507 Y-224.373 I-1.662 J2.705 F762
G1 X-523.093
G2 X-526.268 Y-221.198 J3.175
G1 Y-144.998
G2 X-497.693 Y-116.423 I28.575
G1 X61.107
G2 X89.682 Y-144.998 J-28.575
G1 Y-221.198
G2 X88.169 Y-223.903 I-3.175
G1 Z-9.525 F254
G2 X86.507 Y-224.373 I-1.662 J2.705 F762
G1 X-523.093
G2 X-526.268 Y-221.198 J3.175
G1 Y-144.998
G2 X-497.693 Y-116.423 I28.575
G1 X61.107
G2 X89.682 Y-144.998 J-28.575
G1 Y-221.198
G2 X88.169 Y-223.903 I-3.175
G1 Z-12.7 F254
G2 X86.507 Y-224.373 I-1.662 J2.705 F762
G1 X62.202
Z-10.7
X49.852
Z-12.7 F254
X1.242 F762
Z-10.7
X-11.108
Z-12.7 F254
X-59.718 F762
Z-10.7
X-72.068
Z-12.7 F254
X-120.678 F762
Z-10.7
X-133.028
Z-12.7 F254
X-181.638 F762
Z-10.7
X-193.988
Z-12.7 F254
X-242.598 F762
Z-10.7
X-254.948
Z-12.7 F254
X-303.558 F762
Z-10.7
X-315.908
Z-12.7 F254
X-364.518 F762
Z-10.7
X-376.868
Z-12.7 F254
X-425.478 F762
Z-10.7
X-437.828
Z-12.7 F254
X-486.438 F762
Z-10.7
X-498.788
Z-12.7 F254
X-523.093 F762
G2 X-526.268 Y-221.198 J3.175
G1 Y-189.273
Z-10.7
Y-176.923
Z-12.7 F254
Y-144.998 F762
G2 X-497.693 Y-116.423 I28.575
G1 X-472.823
Z-10.7
X-460.473
Z-12.7 F254
X-410.734 F762
Z-10.7
X-398.384
Z-12.7 F254
X-348.645 F762
Z-10.7
X-336.295
Z-12.7 F254
X-286.557 F762
Z-10.7
X-274.207
Z-12.7 F254
X-224.468 F762
Z-10.7
X-212.118
Z-12.7 F254
X-162.379 F762
Z-10.7
X-150.029
Z-12.7 F254
X-100.29 F762
Z-10.7
X-87.94
Z-12.7 F254
X-38.201 F762
Z-10.7
X-25.851
Z-12.7 F254
X23.888 F762
Z-10.7
X36.238
Z-12.7 F254
X61.107 F762
G2 X89.682 Y-144.998 J-28.575
G1 Y-176.923
Z-10.7
Y-189.273
Z-12.7 F254
Y-221.198 F762
G2 X88.169 Y-223.903 I-3.175
G1 Z-13.7 F254
G2 X86.507 Y-224.373 I-1.662 J2.705 F762
G1 X62.202
Z-10.7
X49.852
Z-13.7 F254
X1.242 F762
Z-10.7
X-11.108
Z-13.7 F254
X-59.718 F762
Z-10.7
X-72.068
Z-13.7 F254
X-120.678 F762
Z-10.7
X-133.028
Z-13.7 F254
X-181.638 F762
Z-10.7
X-193.988
Z-13.7 F254
X-242.598 F762
Z-10.7
X-254.948
Z-13.7 F254
X-303.558 F762
Z-10.7
X-315.908
Z-13.7 F254
X-364.518 F762
Z-10.7
X-376.868
Z-13.7 F254
X-425.478 F762
Z-10.7
X-437.828
Z-13.7 F254
X-486.438 F762
Z-10.7
X-498.788
Z-13.7 F254
X-523.093 F762
G2 X-526.268 Y-221.198 J3.175
G1 Y-189.273
Z-10.7
Y-176.923
Z-13.7 F254
Y-144.998 F762
G2 X-497.693 Y-116.423 I28.575
G1 X-472.823
Z-10.7
X-460.473
Z-13.7 F254
X-410.734 F762
Z-10.7
X-398.384
Z-13.7 F254
X-348.645 F762
Z-10.7
X-336.295
Z-13.7 F254
X-286.557 F762
Z-10.7
X-274.207
Z-13.7 F254
X-224.468 F762
Z-10.7
X-212.118
Z-13.7 F254
X-162.379 F762
Z-10.7
X-150.029
Z-13.7 F254
X-100.29 F762
Z-10.7
X-87.94
Z-13.7 F254
X-38.201 F762
Z-10.7
X-25.851
Z-13.7 F254
X23.888 F762
Z-10.7
X36.238
Z-13.7 F254
X61.107 F762
G2 X89.682 Y-144.998 J-28.575
G1 Y-176.923
Z-10.7
Y-189.273
Z-13.7 F254
Y-221.198 F762
G2 X88.169 Y-223.903 I-3.175
G0 Z1
X102.604 Y-224.446
G1 Z-3.175 F254
G2 X101.101 Y-221.747 I1.672 J2.699 F762
G1 Y-145.547
G2 X129.676 Y-116.972 I28.575
G1 X205.876
G2 X209.051 Y-120.147 J-3.175
G1 Y-221.747
G2 X205.876 Y-224.922 I-3.175
G1 X104.276
G2 X102.604 Y-224.446 J3.175
G0 Z1
X106.396 Y-243.277
G1 Z-3.175 F254
G2 X129.676 Y-231.272 I23.28 J-16.57 F762
G1 X205.876
G2 X209.051 Y-234.447 J-3.175
G1 Y-336.047
G2 X205.876 Y-339.222 I-3.175
G1 X104.276
G2 X101.101 Y-336.047 J3.175
G1 Y-259.847
G2 X106.396 Y-243.277 I28.575
G1 Z-6.35 F254
G2 X129.676 Y-231.272 I23.28 J-16.57 F762
G1 X205.876
G2 X209.051 Y-234.447 J-3.175
G1 Y-336.047
G2 X205.876 Y-339.222 I-3.175
G1 X104.276
G2 X101.101 Y-336.047 J3.175
G1 Y-259.847
G2 X106.396 Y-243.277 I28.575
G0 Z0
X102.723 Y-224.516
G1 Z-2.175 F254
Z-6.35
G2 X101.101 Y-221.747 I1.553 J2.769 F762
G1 Y-145.547
G2 X129.676 Y-116.972 I28.575
G1 X205.876
G2 X209.051 Y-120.147 J-3.175
G1 Y-221.747
G2 X205.876 Y-224.922 I-3.175
G1 X104.276
G2 X102.723 Y-224.516 J3.175
G1 Z-9.525 F254
G2 X101.101 Y-221.747 I1.553 J2.769 F762
G1 Y-145.547
G2 X129.676 Y-116.972 I28.575
G1 X205.876
G2 X209.051 Y-120.147 J-3.175
G1 Y-221.747
G2 X205.876 Y-224.922 I-3.175
G1 X104.276
G2 X102.723 Y-224.516 J3.175
G0 Z0
X106.396 Y-243.277
G1 Z-5.35 F254
Z-9.525
G2 X129.676 Y-231.272 I23.28 J-16.57 F762
G1 X205.876
G2 X209.051 Y-234.447 J-3.175
G1 Y-336.047
G2 X205.876 Y-339.222 I-3.175
G1 X104.276
G2 X101.101 Y-336.047 J3.175
G1 Y-259.847
G2 X106.396 Y-243.277 I28.575
G1 Z-12.7 F254
G2 X129.676 Y-231.272 I23.28 J-16.57 F762
G1 X161.601
Z-10.7
X173.951
Z-12.7 F254
X205.876 F762
G2 X209.051 Y-234.447 J-3.175
G1 Y-279.072
Z-10.7
Y-291.422
Z-12.7 F254
Y-336.047 F762
G2 X205.876 Y-339.222 I-3.175
G1 X161.251
Z-10.7
X148.901
Z-12.7 F254
X104.276 F762
G2 X101.101 Y-336.047 J3.175
G1 Y-304.122
Z-10.7
Y-291.772
Z-12.7 F254
Y-259.847 F762
G2 X106.396 Y-243.277 I28.575
G0 Z0
X102.723 Y-224.516
G1 Z-8.525 F254
Z-12.7
G2 X101.101 Y-221.747 I1.553 J2.769 F762
G1 Y-189.822
Z-10.7
Y-177.472
Z-12.7 F254
Y-145.547 F762
G2 X129.676 Y-116.972 I28.575
G1 X161.601
Z-10.7
X173.951
Z-12.7 F254
X205.876 F762
G2 X209.051 Y-120.147 J-3.175
G1 Y-164.772
Z-10.7
Y-177.122
Z-12.7 F254
Y-221.747 F762
G2 X205.876 Y-224.922 I-3.175
G1 X161.251
Z-10.7
X148.901
Z-12.7 F254
X104.276 F762
G2 X102.723 Y-224.516 J3.175
G1 Z-13.7 F254
G2 X101.101 Y-221.747 I1.553 J2.769 F762
G1 Y-189.822
Z-10.7
Y-177.472
Z-13.7 F254
Y-145.547 F762
G2 X129.676 Y-116.972 I28.575
G1 X161.601
Z-10.7
X173.951
Z-13.7 F254
X205.876 F762
G2 X209.051 Y-120.147 J-3.175
G1 Y-164.772
Z-10.7
Y-177.122
Z-13.7 F254
Y-221.747 F762
G2 X205.876 Y-224.922 I-3.175
G1 X161.251
Z-10.7
X148.901
Z-13.7 F254
X104.276 F762
G2 X102.723 Y-224.516 J3.175
G0 Z0
X106.396 Y-243.277
G1 Z-11.7 F254
Z-13.7
G2 X129.676 Y-231.272 I23.28 J-16.57 F762
G1 X161.601
Z-10.7
X173.951
Z-13.7 F254
X205.876 F762
G2 X209.051 Y-234.447 J-3.175
G1 Y-279.072
Z-10.7
Y-291.422
Z-13.7 F254
Y-336.047 F762
G2 X205.876 Y-339.222 I-3.175
G1 X161.251
Z-10.7
X148.901
Z-13.7 F254
X104.276 F762
G2 X101.101 Y-336.047 J3.175
G1 Y-304.122
Z-10.7
Y-291.772
Z-13.7 F254
Y-259.847 F762
G2 X106.396 Y-243.277 I28.575
G0 Z1
X234.636 Y-228.097
G1 Z-3.175 F254
Y-221.801 F762
G2 X237.811 Y-218.626 I3.175
G1 X275.911
G2 X279.086 Y-221.801 J-3.175
G1 Y-310.701
G2 X275.911 Y-313.876 I-3.175
G1 X237.811
G2 X234.636 Y-310.701 J3.175
G1 Y-228.097
G0 Z1
X234.878 Y-210.316
G1 Z-3.175 F254
G2 X234.636 Y-209.101 I2.933 J1.215 F762
G1 Y-120.201
G2 X237.811 Y-117.026 I3.175
G1 X275.911
G2 X279.086 Y-120.201 J-3.175
G1 Y-209.101
G2 X275.911 Y-212.276 I-3.175
G1 X237.811
G2 X234.878 Y-210.316 J3.175
G1 Z-6.35 F254
G2 X234.636 Y-209.101 I2.933 J1.215 F762
G1 Y-120.201
G2 X237.811 Y-117.026 I3.175
G1 X275.911
G2 X279.086 Y-120.201 J-3.175
G1 Y-209.101
G2 X275.911 Y-212.276 I-3.175
G1 X237.811
G2 X234.878 Y-210.316 J3.175
G0 Z0
Y-220.586
G1 Z-2.175 F254
Z-6.35
G2 X237.811 Y-218.626 I2.933 J-1.215 F762
G1 X275.911
G2 X279.086 Y-221.801 J-3.175
G1 Y-310.701
G2 X275.911 Y-313.876 I-3.175
G1 X237.811
G2 X234.636 Y-310.701 J3.175
G1 Y-221.801
G2 X234.878 Y-220.586 I3.175
G1 Z-9.525 F254
G2 X237.811 Y-218.626 I2.933 J-1.215 F762
G1 X275.911
G2 X279.086 Y-221.801 J-3.175
G1 Y-310.701
G2 X275.911 Y-313.876 I-3.175
G1 X237.811
G2 X234.636 Y-310.701 J3.175
G1 Y-221.801
G2 X234.878 Y-220.586 I3.175
G0 Z0
Y-210.316
G1 Z-5.35 F254
Z-9.525
G2 X234.636 Y-209.101 I2.933 J1.215 F762
G1 Y-120.201
G2 X237.811 Y-117.026 I3.175
G1 X275.911
G2 X279.086 Y-120.201 J-3.175
G1 Y-209.101
G2 X275.911 Y-212.276 I-3.175
G1 X237.811
G2 X234.878 Y-210.316 J3.175
G1 Z-12.7 F254
G2 X234.636 Y-209.101 I2.933 J1.215 F762
G1 Y-170.826
Z-10.7
Y-158.476
Z-12.7 F254
Y-120.201 F762
G2 X237.811 Y-117.026 I3.175
G1 X275.911
G2 X279.086 Y-120.201 J-3.175
G1 Y-158.476
Z-10.7
Y-170.826
Z-12.7 F254
Y-209.101 F762
G2 X275.911 Y-212.276 I-3.175
G1 X237.811
G2 X234.878 Y-210.316 J3.175
G0 Z0
Y-220.586
G1 Z-8.525 F254
Z-12.7
G2 X237.811 Y-218.626 I2.933 J-1.215 F762
G1 X275.911
G2 X279.086 Y-221.801 J-3.175
G1 Y-260.076
Z-10.7
Y-272.426
Z-12.7 F254
Y-310.701 F762
G2 X275.911 Y-313.876 I-3.175
G1 X237.811
G2 X234.636 Y-310.701 J3.175
G1 Y-272.426
Z-10.7
Y-260.076
Z-12.7 F254
Y-221.801 F762
G2 X234.878 Y-220.586 I3.175
G1 Z-13.7 F254
G2 X237.811 Y-218.626 I2.933 J-1.215 F762
G1 X275.911
G2 X279.086 Y-221.801 J-3.175
G1 Y-260.076
Z-10.7
Y-272.426
Z-13.7 F254
Y-310.701 F762
G2 X275.911 Y-313.876 I-3.175
G1 X237.811
G2 X234.636 Y-310.701 J3.175
G1 Y-272.426
Z-10.7
Y-260.076
Z-13.7 F254
Y-221.801 F762
G2 X234.878 Y-220.586 I3.175
G0 Z0
Y-210.316
G1 Z-11.7 F254
Z-13.7
G2 X234.636 Y-209.101 I2.933 J1.215 F762
G1 Y-170.826
Z-10.7
Y-158.476
Z-13.7 F254
Y-120.201 F762
G2 X237.811 Y-117.026 I3.175
G1 X275.911
G2 X279.086 Y-120.201 J-3.175
G1 Y-158.476
Z-10.7
Y-170.826
Z-13.7 F254
Y-209.101 F762
G2 X275.911 Y-212.276 I-3.175
G1 X237.811
G2 X234.878 Y-210.316 J3.175
G0 Z1

(2D Contour4)
M9
X-427.705 Y-453.289
G1 Z1 F254
Z-3.175
X-497.525 F762
G2 X-526.1 Y-424.714 J28.575
G1 Y-348.514
G2 X-522.925 Y-345.339 I3.175
G1 X289.875
G2 X293.05 Y-348.514 J-3.175
G1 Y-424.714
G2 X264.475 Y-453.289 I-28.575
G1 X-427.705
Z-6.35 F254
X-497.525 F762
G2 X-526.1 Y-424.714 J28.575
G1 Y-348.514
G2 X-522.925 Y-345.339 I3.175
G1 X289.875
G2 X293.05 Y-348.514 J-3.175
G1 Y-424.714
G2 X264.475 Y-453.289 I-28.575
G1 X-427.705
Z-9.525 F254
X-497.525 F762
G2 X-526.1 Y-424.714 J28.575
G1 Y-348.514
G2 X-522.925 Y-345.339 I3.175
G1 X289.875
G2 X293.05 Y-348.514 J-3.175
G1 Y-424.714
G2 X264.475 Y-453.289 I-28.575
G1 X-427.705
Z-12.7 F254
X-449.017 F762
Z-10.7
X-461.367
Z-12.7 F254
X-497.525 F762
G2 X-526.1 Y-424.714 J28.575
G1 Y-348.514
G2 X-522.925 Y-345.339 I3.175
G1 X-488.46
Z-10.7
X-476.11
Z-12.7 F254
X-407.18 F762
Z-10.7
X-394.83
Z-12.7 F254
X-325.9 F762
Z-10.7
X-313.55
Z-12.7 F254
X-244.62 F762
Z-10.7
X-232.27
Z-12.7 F254
X-163.34 F762
Z-10.7
X-150.99
Z-12.7 F254
X-82.06 F762
Z-10.7
X-69.71
Z-12.7 F254
X-0.78 F762
Z-10.7
X11.57
Z-12.7 F254
X80.5 F762
Z-10.7
X92.85
Z-12.7 F254
X161.78 F762
Z-10.7
X174.13
Z-12.7 F254
X243.06 F762
Z-10.7
X255.41
Z-12.7 F254
X289.875 F762
G2 X293.05 Y-348.514 J-3.175
G1 Y-424.714
G2 X264.475 Y-453.289 I-28.575
G1 X228.317
Z-10.7
X215.967
Z-12.7 F254
X143.65 F762
Z-10.7
X131.3
Z-12.7 F254
X58.983 F762
Z-10.7
X46.633
Z-12.7 F254
X-25.683 F762
Z-10.7
X-38.033
Z-12.7 F254
X-110.35 F762
Z-10.7
X-122.7
Z-12.7 F254
X-195.017 F762
Z-10.7
X-207.367
Z-12.7 F254
X-279.683 F762
Z-10.7
X-292.033
Z-12.7 F254
X-364.35 F762
Z-10.7
X-376.7
Z-12.7 F254
X-427.705 F762
Z-13.7 F254
X-449.017 F762
Z-10.7
X-461.367
Z-13.7 F254
X-497.525 F762
G2 X-526.1 Y-424.714 J28.575
G1 Y-348.514
G2 X-522.925 Y-345.339 I3.175
G1 X-488.46
Z-10.7
X-476.11
Z-13.7 F254
X-407.18 F762
Z-10.7
X-394.83
Z-13.7 F254
X-325.9 F762
Z-10.7
X-313.55
Z-13.7 F254
X-244.62 F762
Z-10.7
X-232.27
Z-13.7 F254
X-163.34 F762
Z-10.7
X-150.99
Z-13.7 F254
X-82.06 F762
Z-10.7
X-69.71
Z-13.7 F254
X-0.78 F762
Z-10.7
X11.57
Z-13.7 F254
X80.5 F762
Z-10.7
X92.85
Z-13.7 F254
X161.78 F762
Z-10.7
X174.13
Z-13.7 F254
X243.06 F762
Z-10.7
X255.41
Z-13.7 F254
X289.875 F762
G2 X293.05 Y-348.514 J-3.175
G1 Y-424.714
G2 X264.475 Y-453.289 I-28.575
G1 X228.317
Z-10.7
X215.967
Z-13.7 F254
X143.65 F762
Z-10.7
X131.3
Z-13.7 F254
X58.983 F762
Z-10.7
X46.633
Z-13.7 F254
X-25.683 F762
Z-10.7
X-38.033
Z-13.7 F254
X-110.35 F762
Z-10.7
X-122.7
Z-13.7 F254
X-195.017 F762
Z-10.7
X-207.367
Z-13.7 F254
X-279.683 F762
Z-10.7
X-292.033
Z-13.7 F254
X-364.35 F762
Z-10.7
X-376.7
Z-13.7 F254
X-427.705 F762
G0 Z1
X-423.292 Y-466.256
G1 Z-3.175 F254
G2 X-421.355 Y-465.597 I1.937 J-2.516 F762
G1 X-332.455
G2 X-329.28 Y-468.772 J-3.175
G1 Y-506.872
G2 X-332.455 Y-510.047 I-3.175
G1 X-421.355
G2 X-424.53 Y-506.872 J3.175
G1 Y-468.772
G2 X-423.292 Y-466.256 I3.175
G0 Z1
X-430.88 Y-468.772
G1 Z-3.175 F254
Y-506.872 F762
G2 X-434.055 Y-510.047 I-3.175
G1 X-522.955
G2 X-526.13 Y-506.872 J3.175
G1 Y-468.772
G2 X-522.955 Y-465.597 I3.175
G1 X-434.055
G2 X-430.88 Y-468.772 J-3.175
G1 Z-6.35 F254
Y-506.872 F762
G2 X-434.055 Y-510.047 I-3.175
G1 X-522.955
G2 X-526.13 Y-506.872 J3.175
G1 Y-468.772
G2 X-522.955 Y-465.597 I3.175
G1 X-434.055
G2 X-430.88 Y-468.772 J-3.175
G0 Z0
X-423.292 Y-466.256
G1 Z-2.175 F254
Z-6.35
G2 X-421.355 Y-465.597 I1.937 J-2.516 F762
G1 X-332.455
G2 X-329.28 Y-468.772 J-3.175
G1 Y-506.872
G2 X-332.455 Y-510.047 I-3.175
G1 X-421.355
G2 X-424.53 Y-506.872 J3.175
G1 Y-468.772
G2 X-423.292 Y-466.256 I3.175
G1 Z-9.525 F254
G2 X-421.355 Y-465.597 I1.937 J-2.516 F762
G1 X-332.455
G2 X-329.28 Y-468.772 J-3.175
G1 Y-506.872
G2 X-332.455 Y-510.047 I-3.175
G1 X-421.355
G2 X-424.53 Y-506.872 J3.175
G1 Y-468.772
G2 X-423.292 Y-466.256 I3.175
G0 Z0
X-430.88 Y-468.772
G1 Z-5.35 F254
Z-9.525
Y-506.872 F762
G2 X-434.055 Y-510.047 I-3.175
G1 X-522.955
G2 X-526.13 Y-506.872 J3.175
G1 Y-468.772
G2 X-522.955 Y-465.597 I3.175
G1 X-434.055
G2 X-430.88 Y-468.772 J-3.175
G1 Z-12.7 F254
Y-506.872 F762
G2 X-434.055 Y-510.047 I-3.175
G1 X-472.33
Z-10.7
X-484.68
Z-12.7 F254
X-522.955 F762
G2 X-526.13 Y-506.872 J3.175
G1 Y-468.772
G2 X-522.955 Y-465.597 I3.175
G1 X-484.68
Z-10.7
X-472.33
Z-12.7 F254
X-434.055 F762
G2 X-430.88 Y-468.772 J-3.175
G0 Z0
X-423.292 Y-466.256
G1 Z-8.525 F254
Z-12.7
G2 X-421.355 Y-465.597 I1.937 J-2.516 F762
G1 X-383.08
Z-10.7
X-370.73
Z-12.7 F254
X-332.455 F762
G2 X-329.28 Y-468.772 J-3.175
G1 Y-506.872
G2 X-332.455 Y-510.047 I-3.175
G1 X-370.73
Z-10.7
X-383.08
Z-12.7 F254
X-421.355 F762
G2 X-424.53 Y-506.872 J3.175
G1 Y-468.772
G2 X-423.292 Y-466.256 I3.175
G1 Z-13.7 F254
G2 X-421.355 Y-465.597 I1.937 J-2.516 F762
G1 X-383.08
Z-10.7
X-370.73
Z-13.7 F254
X-332.455 F762
G2 X-329.28 Y-468.772 J-3.175
G1 Y-506.872
G2 X-332.455 Y-510.047 I-3.175
G1 X-370.73
Z-10.7
X-383.08
Z-13.7 F254
X-421.355 F762
G2 X-424.53 Y-506.872 J3.175
G1 Y-468.772
G2 X-423.292 Y-466.256 I3.175
G0 Z0
X-430.88 Y-468.772
G1 Z-11.7 F254
Z-13.7
Y-506.872 F762
G2 X-434.055 Y-510.047 I-3.175
G1 X-472.33
Z-10.7
X-484.68
Z-13.7 F254
X-522.955 F762
G2 X-526.13 Y-506.872 J3.175
G1 Y-468.772
G2 X-522.955 Y-465.597 I3.175
G1 X-484.68
Z-10.7
X-472.33
Z-13.7 F254
X-434.055 F762
G2 X-430.88 Y-468.772 J-3.175
G0 Z1
G28 G91 Z0
G90
G28 G91 X0 Y0
G90
M30
%
